icon.svg

<?xml version="1.0" encoding="utf-8"?>
<!-- Generator: Adobe Illustrator 18.0.0, SVG Export Plug-In . SVG Version: 6.00 Build 0)  -->
<!DOCTYPE svg PUBLIC "-//W3C//DTD SVG 1.1//EN" "http://www.w3.org/Graphics/SVG/1.1/DTD/svg11.dtd">
<svg version="1.1" xmlns="http://www.w3.org/2000/svg" xmlns:xlink="http://www.w3.org/1999/xlink" x="0px" y="0px"
	 viewBox="0 0 512 512" enable-background="new 0 0 512 512" xml:space="preserve">
<g id="Background">
	<circle fill="#282C34" cx="256" cy="256" r="247"/>
</g>
<g id="Colors_1_">
	<g>
		<path fill="#DE6A73" d="M257.9,152.3c10.3,0,20.6,1.5,30.9,4.3c7.5,2.1,13.9-0.2,17.8-7c7.4-13,6.7-11.9,21.9-39.1
			c0.7-1.2,0.8-3.4,0.8-4.8c0-1.6-0.2-2.7-0.8-4.2c-2.8-6.5-8.8-9.3-14.7-11.8c-13.7-5.6-28.2-7.6-42.8-8.7
			c-4.4-0.3-8.8-0.5-13.1-0.6h0c-4.4,0-8.7,0.2-13.1,0.6c-14.6,1.1-29.1,3.1-42.8,8.7c-5.9,2.4-11.9,5.3-14.7,11.8
			c-0.6,1.5-0.8,2.6-0.8,4.2c0,1.4,0.2,3.6,0.8,4.8c15.2,27.2,14.5,26.1,21.9,39.1c3.9,6.8,10.3,9.1,17.8,7
			C237.3,153.8,247.6,152.4,257.9,152.3"/>
		<path fill="#C678DD" d="M346.1,204.8c5.2,8.9,9.2,18.5,11.9,28.9c2,7.5,7.2,11.9,15.1,11.8c14.9-0.2,13.7-0.2,44.8-0.9
			c1.4,0,3.4-1,4.6-1.7c1.4-0.8,2.2-1.5,3.2-2.8c4.2-5.7,3.6-12.3,2.7-18.7c-2.1-14.6-7.7-28.2-14.1-41.3c-1.9-4-4-7.8-6.1-11.6l0,0
			c-2.2-3.7-4.6-7.4-7.1-11c-8.4-12-17.4-23.6-29.2-32.5c-5.1-3.9-10.6-7.6-17.6-6.7c-1.6,0.2-2.6,0.6-4,1.4c-1.2,0.7-3,2-3.7,3.2
			c-15.8,26.8-15.2,25.7-22.6,38.7c-3.9,6.8-2.6,13.5,3,18.9C334.4,187.7,340.9,195.9,346.1,204.8"/>
		<path fill="#61AFEF" d="M344.2,309.6c-5.3,8.9-11.8,17-19.5,24.4c-5.6,5.4-6.9,12.1-3.1,18.9c7.4,13,6.8,11.9,22.5,38.8
			c0.7,1.2,2.5,2.5,3.7,3.2c1.4,0.8,2.4,1.2,4,1.4c7,0.9,12.5-2.8,17.6-6.7c11.8-8.9,20.9-20.4,29.3-32.4c2.5-3.6,4.9-7.3,7.2-11
			l0,0c2.2-3.8,4.2-7.6,6.2-11.6c6.5-13.1,12.2-26.7,14.3-41.3c0.9-6.3,1.5-12.9-2.6-18.7c-0.9-1.3-1.8-2-3.2-2.8
			c-1.2-0.7-3.2-1.7-4.6-1.7c-31.1-0.8-29.9-0.8-44.8-1.1c-7.8-0.1-13.1,4.2-15.1,11.8C353.4,291.1,349.4,300.7,344.2,309.6"/>
		<path fill="#98C379" d="M257.9,359.7c10.3,0,20.6-1.5,30.9-4.3c7.5-2.1,13.9,0.2,17.8,7c7.4,13,6.7,11.9,21.9,39.1
			c0.7,1.2,0.8,3.4,0.8,4.8c0,1.6-0.2,2.7-0.8,4.2c-2.8,6.5-8.8,9.3-14.7,11.8c-13.7,5.6-28.2,7.6-42.8,8.7
			c-4.4,0.3-8.8,0.5-13.1,0.6h0c-4.4,0-8.7-0.2-13.1-0.6c-14.6-1.1-29.1-3.1-42.8-8.7c-5.9-2.4-11.9-5.3-14.7-11.8
			c-0.6-1.5-0.8-2.6-0.8-4.2c0-1.4,0.2-3.6,0.8-4.8c15.2-27.2,14.5-26.1,21.9-39.1c3.9-6.8,10.3-9.1,17.8-7
			C237.3,358.2,247.6,359.6,257.9,359.7"/>
		<path fill="#D19A66" d="M167.8,309.6c5.3,8.9,11.8,17,19.5,24.4c5.6,5.4,6.9,12.1,3.1,18.9c-7.4,13-6.8,11.9-22.5,38.8
			c-0.7,1.2-2.5,2.5-3.7,3.2c-1.4,0.8-2.4,1.2-4,1.4c-7,0.9-12.5-2.8-17.6-6.7c-11.8-8.9-20.9-20.4-29.3-32.4
			c-2.5-3.6-4.9-7.3-7.2-11l0,0c-2.2-3.8-4.2-7.6-6.2-11.6c-6.5-13.1-12.2-26.7-14.3-41.3c-0.9-6.3-1.5-12.9,2.6-18.7
			c0.9-1.3,1.8-2,3.2-2.8c1.2-0.7,3.2-1.7,4.6-1.7c31.1-0.8,29.9-0.8,44.8-1.1c7.8-0.1,13.1,4.2,15.1,11.8
			C158.6,291.1,162.6,300.7,167.8,309.6"/>
		<path fill="#ABB2BF" d="M165.9,204.8c-5.2,8.9-9.2,18.5-11.9,28.9c-2,7.5-7.2,11.9-15.1,11.8c-14.9-0.2-13.7-0.2-44.8-0.9
			c-1.4,0-3.4-1-4.6-1.7c-1.4-0.8-2.2-1.5-3.2-2.8c-4.2-5.7-3.6-12.3-2.7-18.7c2.1-14.6,7.7-28.2,14.1-41.3c1.9-4,4-7.8,6.1-11.6
			l0,0c2.2-3.7,4.6-7.4,7.1-11c8.4-12,17.4-23.6,29.2-32.5c5.1-3.9,10.6-7.6,17.6-6.7c1.6,0.2,2.6,0.6,4,1.4c1.2,0.7,3,2,3.7,3.2
			c15.8,26.8,15.2,25.7,22.6,38.7c3.9,6.8,2.6,13.5-3,18.9C177.6,187.7,171.1,195.9,165.9,204.8"/>
	</g>
</g>
</svg>

<svg width="512" height="512" viewBox="0 0 512 512" fill="none" xmlns="http://www.w3.org/2000/svg">
<path d="M256 503C392.414 503 503 392.414 503 256C503 119.586 392.414 9 256 9C119.586 9 9 119.586 9 256C9 392.414 119.586 503 256 503Z" fill="url(#paint0_radial_19_827)"/>
<path d="M257.9 152.3C268.2 152.3 278.5 153.8 288.8 156.6C296.3 158.7 302.7 156.4 306.6 149.6C314 136.6 313.3 137.7 328.5 110.5C329.2 109.3 329.3 107.1 329.3 105.7C329.3 104.1 329.1 103 328.5 101.5C325.7 95 319.7 92.2 313.8 89.7C300.1 84.1 285.6 82.1 271 81C266.6 80.7 262.2 80.5 257.9 80.4C253.5 80.4 249.2 80.6 244.8 81C230.2 82.1 215.7 84.1 202 89.7C196.1 92.1 190.1 95 187.3 101.5C186.7 103 186.5 104.1 186.5 105.7C186.5 107.1 186.7 109.3 187.3 110.5C202.5 137.7 201.8 136.6 209.2 149.6C213.1 156.4 219.5 158.7 227 156.6C237.3 153.8 247.6 152.4 257.9 152.3Z" fill="url(#paint1_linear_19_827)"/>
<path d="M346.1 204.8C351.3 213.7 355.3 223.3 358 233.7C360 241.2 365.2 245.6 373.1 245.5C388 245.3 386.8 245.3 417.9 244.6C419.3 244.6 421.3 243.6 422.5 242.9C423.9 242.1 424.7 241.4 425.7 240.1C429.9 234.4 429.3 227.8 428.4 221.4C426.3 206.8 420.7 193.2 414.3 180.1C412.4 176.1 410.3 172.3 408.2 168.5C406 164.8 403.6 161.1 401.1 157.5C392.7 145.5 383.7 133.9 371.9 125C366.8 121.1 361.3 117.4 354.3 118.3C352.7 118.5 351.7 118.9 350.3 119.7C349.1 120.4 347.3 121.7 346.6 122.9C330.8 149.7 331.4 148.6 324 161.6C320.1 168.4 321.4 175.1 327 180.5C334.4 187.7 340.9 195.9 346.1 204.8Z" fill="url(#paint2_linear_19_827)"/>
<path d="M344.2 309.6C338.9 318.5 332.4 326.6 324.7 334C319.1 339.4 317.8 346.1 321.6 352.9C329 365.9 328.4 364.8 344.1 391.7C344.8 392.9 346.6 394.2 347.8 394.9C349.2 395.7 350.2 396.1 351.8 396.3C358.8 397.2 364.3 393.5 369.4 389.6C381.2 380.7 390.3 369.2 398.7 357.2C401.2 353.6 403.6 349.9 405.9 346.2C408.1 342.4 410.1 338.6 412.1 334.6C418.6 321.5 424.3 307.9 426.4 293.3C427.3 287 427.9 280.4 423.8 274.6C422.9 273.3 422 272.6 420.6 271.8C419.4 271.1 417.4 270.1 416 270.1C384.9 269.3 386.1 269.3 371.2 269C363.4 268.9 358.1 273.2 356.1 280.8C353.4 291.1 349.4 300.7 344.2 309.6Z" fill="url(#paint3_linear_19_827)"/>
<path d="M257.9 359.7C268.2 359.7 278.5 358.2 288.8 355.4C296.3 353.3 302.7 355.6 306.6 362.4C314 375.4 313.3 374.3 328.5 401.5C329.2 402.7 329.3 404.9 329.3 406.3C329.3 407.9 329.1 409 328.5 410.5C325.7 417 319.7 419.8 313.8 422.3C300.1 427.9 285.6 429.9 271 431C266.6 431.3 262.2 431.5 257.9 431.6C253.5 431.6 249.2 431.4 244.8 431C230.2 429.9 215.7 427.9 202 422.3C196.1 419.9 190.1 417 187.3 410.5C186.7 409 186.5 407.9 186.5 406.3C186.5 404.9 186.7 402.7 187.3 401.5C202.5 374.3 201.8 375.4 209.2 362.4C213.1 355.6 219.5 353.3 227 355.4C237.3 358.2 247.6 359.6 257.9 359.7Z" fill="url(#paint4_linear_19_827)"/>
<path d="M167.8 309.6C173.1 318.5 179.6 326.6 187.3 334C192.9 339.4 194.2 346.1 190.4 352.9C183 365.9 183.6 364.8 167.9 391.7C167.2 392.9 165.4 394.2 164.2 394.9C162.8 395.7 161.8 396.1 160.2 396.3C153.2 397.2 147.7 393.5 142.6 389.6C130.8 380.7 121.7 369.2 113.3 357.2C110.8 353.6 108.4 349.9 106.1 346.2C103.9 342.4 101.9 338.6 99.8999 334.6C93.3999 321.5 87.6999 307.9 85.5999 293.3C84.6999 287 84.0999 280.4 88.1999 274.6C89.0999 273.3 89.9999 272.6 91.3999 271.8C92.5999 271.1 94.5999 270.1 95.9999 270.1C127.1 269.3 125.9 269.3 140.8 269C148.6 268.9 153.9 273.2 155.9 280.8C158.6 291.1 162.6 300.7 167.8 309.6Z" fill="url(#paint5_linear_19_827)"/>
<path d="M165.9 204.8C160.7 213.7 156.7 223.3 154 233.7C152 241.2 146.8 245.6 138.9 245.5C124 245.3 125.2 245.3 94.1 244.6C92.7 244.6 90.7 243.6 89.5 242.9C88.1 242.1 87.3 241.4 86.3 240.1C82.1 234.4 82.7 227.8 83.6 221.4C85.7 206.8 91.3 193.2 97.7 180.1C99.6 176.1 101.7 172.3 103.8 168.5C106 164.8 108.4 161.1 110.9 157.5C119.3 145.5 128.3 133.9 140.1 125C145.2 121.1 150.7 117.4 157.7 118.3C159.3 118.5 160.3 118.9 161.7 119.7C162.9 120.4 164.7 121.7 165.4 122.9C181.2 149.7 180.6 148.6 188 161.6C191.9 168.4 190.6 175.1 185 180.5C177.6 187.7 171.1 195.9 165.9 204.8Z" fill="url(#paint6_linear_19_827)"/>
<defs>
<radialGradient id="paint0_radial_19_827" cx="0" cy="0" r="1" gradientUnits="userSpaceOnUse" gradientTransform="translate(256 256) rotate(90) scale(247)">
<stop stop-color="#032102"/>
<stop offset="0.71" stop-color="#0E0E0C"/>
</radialGradient>
<linearGradient id="paint1_linear_19_827" x1="257.9" y1="80.4" x2="257.9" y2="254.5" gradientUnits="userSpaceOnUse">
<stop stop-color="#E06C75"/>
<stop offset="1" stop-color="#0E0E0C"/>
</linearGradient>
<linearGradient id="paint2_linear_19_827" x1="406" y1="168" x2="260.5" y2="259.5" gradientUnits="userSpaceOnUse">
<stop stop-color="#BF75C9"/>
<stop offset="1" stop-color="#0E0E0C"/>
</linearGradient>
<linearGradient id="paint3_linear_19_827" x1="406.5" y1="342.5" x2="261" y2="258.5" gradientUnits="userSpaceOnUse">
<stop stop-color="#65B0DE"/>
<stop offset="1" stop-color="#0E0E0C"/>
</linearGradient>
<linearGradient id="paint4_linear_19_827" x1="257.9" y1="259" x2="257.9" y2="431.6" gradientUnits="userSpaceOnUse">
<stop stop-color="#0E0E0C"/>
<stop offset="1" stop-color="#98C379"/>
</linearGradient>
<linearGradient id="paint5_linear_19_827" x1="104" y1="342" x2="259" y2="259" gradientUnits="userSpaceOnUse">
<stop stop-color="#D19A66"/>
<stop offset="1" stop-color="#0E0E0C"/>
</linearGradient>
<linearGradient id="paint6_linear_19_827" x1="102.5" y1="171" x2="260" y2="260" gradientUnits="userSpaceOnUse">
<stop stop-color="#C8C3BE"/>
<stop offset="1" stop-color="#0E0E0C"/>
</linearGradient>
</defs>
</svg>
